X:545
T:Jug of Punch
C:Boys of the Lough
R:reel
H:Also in Edor, #538
Z:
M:4/4
K:Ddor
"Dm"DEFG AGGG|AGGG AGEC|"Am" A,2A,B, CDEF|G2 AG ECAG|
"Dm"ADDE FDDE|"C"FDED C2 EG|"Am"cded cAGE|"F/(Bb)"FA"(Am)"EA"Dm"D4:|
|:"Dm"Adde fgfd|efed cA A2|"Am"AEAB cBcd|"(C)"efed cAAG|
"Bb"Adde f2 fd|"Am"e2 ed cAAB|"C"cdcA"G"B2 AG|"F/(Bb)"FA"(Am)"EA"Dm"D4:|
